Sources/FrostedUI/Resources/Icons.xcassets/discordFilled24.imageset/discord-filled-24.svg

<svg width="24" height="24" viewBox="0 0 24 24" fill="none" xmlns="http://www.w3.org/2000/svg" data-fui-icon="true">
  <path
    d="M15.0969 3.61914C16.6644 3.88572 18.1906 4.35725 19.636 5.02246C22.126 8.68235 23.3633 12.8105 22.9065 17.5732C21.224 18.8237 19.3396 19.7737 17.3362 20.3809C16.8851 19.7724 16.4861 19.1266 16.1438 18.4502C16.7959 18.2052 17.4253 17.9026 18.0247 17.5469C17.8691 17.4409 17.7152 17.3226 17.5647 17.1992C15.8239 18.0222 13.9239 18.4492 12.0002 18.4492C10.0763 18.4492 8.17574 18.0222 6.43481 17.1992C6.28611 17.3139 6.13221 17.4321 5.97485 17.5469C6.57306 17.9019 7.20101 18.2039 7.85181 18.4482C7.50916 19.1249 7.11101 19.7716 6.6604 20.3809C4.65877 19.7712 2.77518 18.8207 1.09302 17.5713C0.703768 13.4645 1.48251 9.29841 4.35474 5.02637C5.80161 4.36102 7.32928 3.88798 8.89771 3.61914C9.11198 4.00444 9.3059 4.40086 9.47876 4.80664C11.1483 4.55374 12.8463 4.55373 14.5159 4.80664C14.6887 4.40081 14.8825 4.00439 15.0969 3.61914ZM8.34204 10.6221C7.22941 10.6221 6.3645 11.6213 6.3645 12.8389C6.36473 14.0562 7.26032 15.0457 8.34497 15.0459C9.45054 15.0459 10.3051 14.0563 10.3245 12.8389C10.3435 11.6213 9.45458 10.6222 8.34204 10.6221ZM15.6545 10.6221C14.5401 10.6221 13.675 11.6213 13.675 12.8389C13.6753 14.0564 14.568 15.0459 15.6545 15.0459C16.76 15.0458 17.6129 14.0563 17.6321 12.8389C17.6512 11.6213 16.7689 10.6222 15.6545 10.6221Z"
    fill="currentColor"
  />
</svg>

<svg xmlns="http://www.w3.org/2000/svg" width="24" height="24" fill="none" data-fui-icon="true" viewBox="0 0 24 24"><path fill="currentColor" d="M15.097 3.62c1.567.266 3.094.737 4.539 1.402 2.49 3.66 3.727 7.788 3.27 12.551a18.2 18.2 0 0 1-5.57 2.808 13.4 13.4 0 0 1-1.192-1.93 12 12 0 0 0 1.88-.904 7 7 0 0 1-.46-.348 13.02 13.02 0 0 1-11.13 0 22 22 0 0 1-.46.348q.9.534 1.878.901c-.343.677-.741 1.324-1.192 1.933a18.3 18.3 0 0 1-5.567-2.81c-.39-4.107.39-8.273 3.262-12.545A18.3 18.3 0 0 1 8.898 3.62q.322.578.58 1.188a16.8 16.8 0 0 1 5.038 0q.26-.61.58-1.188m-6.755 7.002c-1.113 0-1.978 1-1.978 2.217s.896 2.207 1.981 2.207c1.106 0 1.96-.99 1.98-2.207.019-1.218-.87-2.217-1.983-2.217m7.313 0c-1.115 0-1.98 1-1.98 2.217s.893 2.207 1.98 2.207c1.105 0 1.958-.99 1.977-2.207.02-1.218-.863-2.217-1.978-2.217"/></svg>
